X: 68
T: Msza Święta - Graduale
C: Józef Stefani
%%abc-version 2.0
%%abcx-abcm2ps-target-version 5.9.1 (29 Sep 2008)
%%abc-creator hum2abc beta
%%abcx-conversion-date 2021/10/04 07:38:39
%%abc-edited-by Andrzej Gręziak
%%abc-edited-by Kamil Watkowski
%%abcx-initial-encoding-date 2021-08-12
%%humdrum-veritas 1405812034
%%humdrum-veritas-data 3254119389
%%linebreak <none>
%%barnumbers 0
L: 1/4
M: 3/4
N: Derived from pl-kozmzk--mzk-m-26--003_stefani-jozef-msza-swieta-graduale.krn
Q: "Andante"
V: 1 clef=tenor
V: 2 clef=tenor
V: 3 clef=bass
V: 4 clef=treble
V: 5 clef=bass
K: Bb
[V:1] zzB, ]|:  
[V:2] zzB, ]|:  
[V:3] zzB, ]|:  
[V:4] [DB][Ec][FBd] ]|:  
[V:5] [B,,B,][A,,A,][_A,,_A,] ]|:  
[V:1] E2D | 
[V:2] B,2B, | 
[V:3] G,2F, | 
[V:4] [E2B2e2][FBd] | 
[V:5] [G,,2G,2][F,,F,]- | 
[V:1] CD3/F/ | 
[V:2] A,B,3/B,/ | 
[V:3] F,B,,3/D,/ | 
[V:4] [Ac]d3/f/ & FB2 | 
[V:5] [F,,F,]B,,3/D,/ | 
[V:1] C2E3//D// | 
[V:2] A,2C3//B,// | 
[V:3] F,3 | 
[V:4] [A2c2][c3//e3//][B//d//] & F3 | 
[V:5] F,2[F,,F,]- | 
[V:1] C2C | 
[V:2] A,2A, | 
[V:3] F,2F, | 
[V:4] [A2c2][Ac] & F2F | 
[V:5] [F,,2F,2][F,,F,] | 
[V:1] _D2B, | 
[V:2] B,2F, | 
[V:3] B,,2_D, | 
[V:4] [B2_d2]B & F2F | 
[V:5] B,,2_D, | 
[V:1] CC3/B,/ | 
[V:2] _G,G,3/=G,/ | 
[V:3] E,E,3/=E,/ | 
[V:4] c2-c/B/ & _G2-G/=G/ | 
[V:5] E,2-E,/=E,/ | 
[V:1] A,2C | 
[V:2] F,2A, | 
[V:3] F,3 | 
[V:4] A2[Ac] & F2-F | 
[V:5] F,2[F,,F,] | 
[V:1] C2z | 
[V:2] A,2z | 
[V:3] F,2F, | 
[V:4] [F2A2c2]z | 
[V:5] [F,,2F,2][F,,F,] | 
[V:1] zzF | 
[V:2] z3 | 
[V:3] B,2A, | 
[V:4] zz[Ff] | 
[V:5] [B,,2B,2][A,,A,] | 
[V:1] EED | 
[V:2] zzB, | 
[V:3] G,G,F, | 
[V:4] [E2e2][FBd] | 
[V:5] [G,,2G,2][F,,F,] | 
[V:1] C3//D/8C/8B,C | 
[V:2] G,3 | 
[V:3] E,3 | 
[V:4] c3//d/8c/8Bc & G3 | 
[V:5] [E,,3E,3] | 
[V:1] D2C | 
[V:2] ^F,2A, | 
[V:3] D,2^F, | 
[V:4] [^F2d2][Ac] | 
[V:5] [D,,2D,2][^F,,^F,] | 
[V:1] B,B,=B, | 
[V:2] G,G,G, | 
[V:3] G,G,=F, | 
[V:4] B2=B & [D3G3] | 
[V:5] [G,,2G,2][=F,,=F,] | 
[V:1] C2E | 
[V:2] G,2G, | 
[V:3] E,2C, | 
[V:4] c2e & [E3G3] | 
[V:5] [E,,2E,2][C,,C,] | 
[V:1] D3/C//D/< E/ F// | 
[V:2] B,3/A,//B,/< C/ A,// | 
[V:3] F,2-F,3// F,// | 
[V:4] [B3/d3/][A//c//][B/d/]< [c/e/][A//f//] & F3 | 
[V:5] [F,,3F,3] | 
[V:1] DD/ z/ z3// B,// :|]  
[V:2] B,B,/ z/ z3// B,// :|]  
[V:3] B,,B,,/ z/ z3// B,// :|]  
[V:4] [FBd][F/B/d/]>[D/B/][E3//c3//][F//B//d//] :|]  
[V:5] [B,,F,][B,,/F,/]>[B,,/B,/][A,,3//A,3//][_A,,//_A,//] :|]  
[V:1] B,B,/ z/z | 
[V:2] B,B,/ z/z | 
[V:3] B,B,,/ z/z | 
[V:4] B2[FBd] | 
[V:5] B,2_A, & B,,3 | 
[V:1] z3 | 
[V:2] z3 | 
[V:3] z3 | 
[V:4] [E2B2e2][FBd] | 
[V:5] G,2F, & B,,3 | 
[V:1] z3 | 
[V:2] z3 | 
[V:3] z3 | 
[V:4] [Gc]G[EFA] | 
[V:5] E,2F, | 
[V:1] z3 | 
[V:2] z3 | 
[V:3] z3 | 
[V:4] [F3G3A3c3] | 
[V:5] [B,,3F,3]- | 
[V:1] z3 |]  
[V:2] z3 |]  
[V:3] z3 |]  
[V:4] [D3F3B3] |]  
[V:5] [B,,3F,3] |]  


